X:1
T: Lady Isabella Wemyss' Strathspey
C:William Marshall
R:Strathspey
Q: 128
K:D
M:4/4
L:1/16
|:D4 E3F A2B2 B,4|A,2D2 D2F2 E4 D2A,2|D2D2 E2F2 A2B2 B,4|d3B A2F2 E4 D4|
D4 E3F A2B2 B,4|A,2D2 D2F2 E4 D2A,2|D2D2 E2F2 A2B2 B,4|d3B A2F2 E4 D4|
A3d f3d gfed B4|A2d2 d2f2 e4 d3A|B3d BAGF GFED B,4|A,3D D2F2 E4 D4|
A3d f3d gfed B4|A2d2 d2f2 e4 d3A|Bdcd BAGF GFED B,4|d3B A2F2 E4 D4:|
